raw-svg/file-pdf.svg

<svg viewBox="0 0 24 24" xmlns="http://www.w3.org/2000/svg"><path d="m18.53 9-5.53-5.53a.75.75 0 0 0 -.53-.22h-4.47a2.75 2.75 0 0 0 -2.75 2.75v12a2.75 2.75 0 0 0 2.75 2.75h8a2.75 2.75 0 0 0 2.75-2.75v-8.5a.75.75 0 0 0 -.22-.5zm-5.28-3.19 2.94 2.94h-2.94zm2.75 13.44h-8a1.25 1.25 0 0 1 -1.25-1.25v-12a1.25 1.25 0 0 1 1.25-1.25h3.75v4.75a.76.76 0 0 0 .75.75h4.75v7.75a1.25 1.25 0 0 1 -1.25 1.25z"/><path d="m13.49 14.85a3.15 3.15 0 0 1 -1.31-1.66 4.44 4.44 0 0 0 .19-2 .8.8 0 0 0 -1.52-.19 5 5 0 0 0 .25 2.4 29 29 0 0 1 -1.27 2.6c-.71.4-1.68 1-1.83 1.69-.12.56.93 2 2.72-1.12a18.58 18.58 0 0 1 2.44-.72 4.72 4.72 0 0 0 2 .61.82.82 0 0 0 .62-1.38c-.42-.43-1.67-.31-2.29-.23zm-4.78 3a4.32 4.32 0 0 1 1.09-1.24c-.68 1.08-1.09 1.27-1.09 1.25zm2.92-6.81c.26 0 .24 1.15.06 1.46a3.07 3.07 0 0 1 -.06-1.45zm-.87 4.88a14.76 14.76 0 0 0 .88-1.92 3.88 3.88 0 0 0 1.08 1.26 12.35 12.35 0 0 0 -1.96.67zm4.7-.18s-.18.22-1.33-.28c1.25-.08 1.46.21 1.33.29z"/></svg>

<svg xmlns="http://www.w3.org/2000/svg" viewBox="0 0 24 24"><g id="file-pdf"><path d="M18.53,9,13,3.47a.75.75,0,0,0-.53-.22H8A2.75,2.75,0,0,0,5.25,6V18A2.75,2.75,0,0,0,8,20.75h8A2.75,2.75,0,0,0,18.75,18V9.5A.75.75,0,0,0,18.53,9ZM13.25,5.81l2.94,2.94H13.25ZM16,19.25H8A1.25,1.25,0,0,1,6.75,18V6A1.25,1.25,0,0,1,8,4.75h3.75V9.5a.76.76,0,0,0,.75.75h4.75V18A1.25,1.25,0,0,1,16,19.25Z"/><path d="M13.49,14.85a3.15,3.15,0,0,1-1.31-1.66,4.44,4.44,0,0,0,.19-2A.8.8,0,0,0,10.85,11a5,5,0,0,0,.25,2.4A29,29,0,0,1,9.83,16C9.12,16.4,8.15,17,8,17.69c-.12.56.93,2,2.72-1.12a18.58,18.58,0,0,1,2.44-.72,4.72,4.72,0,0,0,2,.61.82.82,0,0,0,.62-1.38C15.36,14.65,14.11,14.77,13.49,14.85Zm-4.78,3A4.32,4.32,0,0,1,9.8,16.61C9.12,17.69,8.71,17.88,8.71,17.86Zm2.92-6.81c.26,0,.24,1.15.06,1.46A3.07,3.07,0,0,1,11.63,11.05Zm-.87,4.88A14.76,14.76,0,0,0,11.64,14a3.88,3.88,0,0,0,1.08,1.26A12.35,12.35,0,0,0,10.76,15.93Zm4.7-.18s-.18.22-1.33-.28C15.38,15.38,15.59,15.67,15.46,15.75Z"/></g></svg>
